tools/download-figma-icons/icons/outlined-medium/contact-person.svg

<svg width="24" height="24" viewBox="0 0 24 24" fill="none" xmlns="http://www.w3.org/2000/svg">
<path fill-rule="evenodd" clip-rule="evenodd" d="M10.1314 14.0078L9.85762 14.826L11.9996 16.962L14.1424 14.826L13.8686 14.0078C13.3991 14.178 12.9071 14.277 12.4091 14.277H11.5916C11.0921 14.277 10.6009 14.178 10.1314 14.0078ZM8.31785 8.77725V9.57825C8.31785 11.181 9.95435 12.7838 11.5916 12.7838H12.4091C14.0456 12.7838 15.6821 11.181 15.6821 9.57825V8.77725C15.6821 8.77725 16.4996 8.77725 16.4996 7.9755V7.1745C16.4996 6.37275 15.6821 6.37275 15.6821 6.37275C17.3179 3.969 14.8639 1.56525 14.8639 1.56525C14.8639 1.56525 14.0456 3.168 10.7726 3.168C7.96714 3.168 8.16757 4.93406 8.28207 5.94306C8.30116 6.11121 8.31785 6.25833 8.31785 6.37275C7.4996 6.37275 7.4996 6.915 7.4996 7.1745V7.9755C7.4996 8.77725 8.31785 8.77725 8.31785 8.77725ZM15.7121 14.7915C15.8014 15.0592 15.7309 15.3555 15.5306 15.555L12.5306 18.546C12.3904 18.6863 12.1991 18.765 11.9996 18.765C11.8009 18.765 11.6096 18.6863 11.4686 18.546L8.81661 15.9015L5.44911 17.2208C4.79586 17.4765 4.33236 18.0007 4.20786 18.6232L2.97636 23.4382C2.89011 23.7757 2.58561 24 2.25036 24C2.18886 24 2.12661 23.9932 2.06436 23.9775C1.66311 23.8755 1.42086 23.469 1.52361 23.0693L2.74611 18.2933C2.96061 17.2095 3.76911 16.2743 4.90011 15.831L8.39886 14.4608L8.78811 13.2952C8.78961 13.2915 8.79186 13.2883 8.79411 13.2851C8.79636 13.2819 8.79861 13.2788 8.80011 13.275C7.67886 12.42 6.88461 11.118 6.82236 9.753C6.33786 9.366 5.99961 8.7675 5.99961 7.9755V7.575V7.1745C5.99961 6.34425 6.30036 5.7765 6.73236 5.4135C6.70086 4.65375 6.80361 3.672 7.53861 2.853C8.24061 2.0715 9.32811 1.67475 10.7726 1.67475C12.7384 1.67475 13.4089 1.0095 13.5416 0.84975C13.7231 0.39825 14.0884 0.13575 14.5714 0.0285C14.6569 0.00975 14.7431 0 14.8271 0C15.2321 0 15.6154 0.207 15.9154 0.501C16.8746 1.44075 18.2081 3.56925 17.5804 5.817C17.8399 6.17325 17.9996 6.62775 17.9996 7.1745V7.9755C17.9996 8.7675 17.6621 9.366 17.1776 9.753C17.1154 11.118 16.3211 12.42 15.1999 13.275C15.2013 13.2785 15.2035 13.2815 15.2057 13.2845C15.2082 13.2879 15.2107 13.2913 15.2119 13.2952L15.7121 14.7915ZM19.7488 12.1512C19.9791 11.9097 20.5461 11.8707 21.5023 12.6627C22.7826 13.7315 23.2836 16.571 20.1793 20.4605L20.1718 20.4822C17.0661 24.362 14.2093 24.4422 12.9306 23.384C11.9736 22.5927 11.8941 22.01 12.0801 21.731C12.2668 21.4527 13.0003 20.744 13.8703 20.1762C14.645 19.666 14.8254 19.8587 15.4634 20.5402C15.5185 20.599 15.577 20.6615 15.6396 20.7275C16.4248 21.5472 17.2633 20.8587 18.6021 19.1742C19.9513 17.489 20.4553 16.5245 19.4953 15.9095C19.4238 15.8636 19.356 15.8206 19.292 15.7801C18.4979 15.277 18.2788 15.1381 18.6043 14.2505C18.9756 13.2792 19.5178 12.3935 19.7488 12.1512Z" fill="black"/>
</svg>

<svg xmlns="http://www.w3.org/2000/svg" width="24" height="24" fill="none" viewBox="0 0 24 24"><path fill="currentColor" fill-rule="evenodd" d="m10.131 14.008-.273.818L12 16.962l2.142-2.136-.273-.818c-.47.17-.962.269-1.46.269h-.817c-.5 0-.991-.099-1.46-.27m-1.813-5.23v.8c0 1.603 1.636 3.206 3.274 3.206h.817c1.637 0 3.273-1.603 3.273-3.206v-.8s.818 0 .818-.803v-.8c0-.802-.818-.802-.818-.802 1.636-2.404-.818-4.808-.818-4.808s-.818 1.603-4.091 1.603c-2.806 0-2.605 1.766-2.49 2.775.018.168.035.315.035.43-.818 0-.818.542-.818.801v.801c0 .802.818.802.818.802m7.394 6.013a.75.75 0 0 1-.181.764l-3 2.991a.75.75 0 0 1-1.062 0L8.818 15.9 5.45 17.219c-.653.256-1.117.78-1.241 1.402l-1.232 4.815a.75.75 0 0 1-.912.54.746.746 0 0 1-.54-.909l1.222-4.776c.215-1.084 1.023-2.019 2.154-2.462l3.499-1.37.39-1.166q.001-.006.005-.01t.006-.01c-1.121-.855-1.915-2.157-1.978-3.522C6.338 9.366 6 8.768 6 7.976v-.801c0-.83.3-1.398.732-1.761-.031-.76.072-1.742.807-2.561.702-.782 1.79-1.178 3.234-1.178 1.965 0 2.636-.665 2.769-.825.181-.452.546-.714 1.03-.821q.128-.03.255-.029c.405 0 .788.207 1.088.501.96.94 2.293 3.068 1.665 5.316.26.356.42.81.42 1.358v.8c0 .793-.338 1.391-.822 1.778-.063 1.365-.857 2.667-1.978 3.522l.006.01q.004.004.006.01zm4.037-2.64c.23-.241.797-.28 1.753.512 1.28 1.069 1.782 3.908-1.323 7.797l-.007.022c-3.106 3.88-5.963 3.96-7.241 2.902-.957-.791-1.037-1.374-.85-1.653s.92-.987 1.79-1.555c.774-.51.954-.317 1.592.364l.177.188c.785.82 1.623.13 2.962-1.554 1.35-1.685 1.853-2.65.893-3.264l-.203-.13c-.794-.503-1.013-.642-.688-1.53.372-.97.914-1.857 1.145-2.099" clip-rule="evenodd"/></svg>
